X: 42957
T: Willie Clancy's
R: slide
M: 12/8
K: Gmajor
g2 e|:d2B G2A AGE G2E|D2G BAG A3 B2d|
d2B G2A AGE G2E|D2G BAG A3 G2B:|
c2d e2f g3 e2d|B2d g2e d2B G2B|c2d e2f g2f gfe|
d2B G2B A3 A2G|Bcd e2f g2 e2d|Bcd g2e d2B G2A|
Bcd e2f g3 g3|g3 g2b agf g2e||

